img/svg/pattern-white.svg

<svg xmlns="http://www.w3.org/2000/svg" width="500" height="500" viewBox="0 0 500 500"><path fill="#fff" d="M332.9 437.3l10.4-10.4c3.2-3.2 3.2-8 .2-10.9-2.9-2.9-7.7-2.9-10.6 0-2.9-2.9-7.7-3-10.6 0-2.9 2.9-3 7.7.2 10.9 3.6 3.5 9.4 9.3 10.4 10.4zm79.3-214.9c0 .7-.4 3.4-5.1 8-4.5 4.3-6.6 4.9-7.2 4.9.6 0 2.7.6 7.2 4.9 4.6 4.5 5.1 7.2 5.1 8 0-.7.4-3.4 5.1-8 4.5-4.3 6.6-4.9 7.2-4.9-.6 0-2.7-.6-7.2-4.9-4.6-4.6-5-7.3-5.1-8zM243.1 284H224l-3.3 6.1 12.9 14.8 12.9-14.8-3.4-6.1zm-.9 1.7l2 3.5h-3.5l1.5-3.5zm-1.6-.1l-1.4 3.2-3.6-3.2h5zm-3.4 3.6h-7.4l3.7-3.4 3.7 3.4zm-5.6-3.6l-3.6 3.2-1.4-3.2h5zm-6.7.1l1.6 3.5H223l1.9-3.5zm-1.5 5.1h3.8l3.9 8.8-7.7-8.8zm5.4 0h9.4l-4.7 10.8-4.7-10.8zm7.3 8.8l3.9-8.8h3.8l-7.7 8.8zM99.3 327.2l6-6c1.9-1.9 1.8-4.6.1-6.2-1.7-1.7-4.4-1.7-6.1 0-1.7-1.7-4.4-1.7-6.1 0s-1.7 4.4.1 6.2l6 6zM184 150.4c0 .4-.3 2-2.9 4.6-2.6 2.5-3.8 2.8-4.1 2.8.4 0 1.6.3 4.1 2.8 2.7 2.6 2.9 4.1 2.9 4.6 0-.4.3-2 2.9-4.6 2.6-2.5 3.8-2.8 4.1-2.8-.4 0-1.6-.3-4.1-2.8-2.6-2.6-2.8-4.1-2.9-4.6zM475.3 382h-11l-1.9 3.5 7.4 8.5 7.4-8.5-1.9-3.5zm-.5.9l1.1 2h-2l.9-2zm-1 0l-.8 1.9-2-1.9h2.8zm-1.9 2h-4.2l2.1-1.9 2.1 1.9zm-3.2-2l-2 1.9-.8-1.9h2.8zm-3.9 0l.9 2h-2l1.1-2zm-.8 2.9h2.2l2.2 5.1-4.4-5.1zm3.1 0h5.4l-2.7 6.2-2.7-6.2zm4.2 5.1l2.2-5.1h2.2l-4.4 5.1zM363.4 107.7l16.3-16.3c5.1-5.1 5-12.5.4-17.1s-12.1-4.6-16.7 0c-4.6-4.6-12.1-4.6-16.7 0s-4.7 12 .4 17.1l16.3 16.3zM39.8 425.5c0 1.1-.7 5.4-8 12.5-7 6.8-10.3 7.6-11.3 7.7 1 .1 4.3.9 11.3 7.7 7.3 7.1 7.9 11.3 8 12.5 0-1.1.7-5.4 8-12.5 7-6.8 10.3-7.6 11.3-7.7-1-.1-4.3-.9-11.3-7.7-7.3-7.1-8-11.4-8-12.5zM94.1 38.1H64.3L59 47.6l20.1 23.2 20.1-23.2-5.1-9.5zm-1.4 2.6l3.1 5.6h-5.5l2.4-5.6zm-2.6-.1l-2.2 5.1-5.6-5.1h7.8zm-5.2 5.7H73.5l5.7-5.3 5.7 5.3zM76 40.6l-5.6 5.1-2.2-5.1H76zm-10.4.1l2.4 5.6h-5.5l3.1-5.6zm-2.4 8h6l6.1 13.9-12.1-13.9zm8.6 0h14.8l-7.4 16.9-7.4-16.9zm11.4 13.9l6.1-13.9h6L83.2 62.6z"/></svg>

<?xml version="1.0" encoding="utf-8"?>
<!-- Generator: Adobe Illustrator 17.1.0, SVG Export Plug-In . SVG Version: 6.00 Build 0)  -->
<!DOCTYPE svg PUBLIC "-//W3C//DTD SVG 1.1//EN" "http://www.w3.org/Graphics/SVG/1.1/DTD/svg11.dtd">
<svg version="1.1" id="Layer_1" xmlns="http://www.w3.org/2000/svg" xmlns:xlink="http://www.w3.org/1999/xlink" x="0px" y="0px"
	 width="500px" height="500px" viewBox="0 0 500 500" enable-background="new 0 0 500 500" xml:space="preserve">
<path fill="#FFFFFF" d="M332.9,437.3c1-1,6.8-6.8,10.4-10.4c3.2-3.2,3.2-8,0.2-10.9c-2.9-2.9-7.7-2.9-10.6,0c-2.9-2.9-7.7-3-10.6,0
	c-2.9,2.9-3,7.7,0.2,10.9C326.1,430.4,331.9,436.2,332.9,437.3z"/>
<path id="path2243" fill="#FFFFFF" d="M412.2,222.4c0,0.7-0.4,3.4-5.1,8c-4.5,4.3-6.6,4.9-7.2,4.9c0.6,0,2.7,0.6,7.2,4.9
	c4.6,4.5,5.1,7.2,5.1,8c0-0.7,0.4-3.4,5.1-8c4.5-4.3,6.6-4.9,7.2-4.9c-0.6,0-2.7-0.6-7.2-4.9C412.7,225.8,412.3,223.1,412.2,222.4z"
	/>
<path fill="#FFFFFF" d="M243.1,284h-9.5H224l-3.3,6.1l12.9,14.8l12.9-14.8L243.1,284z M242.2,285.7l2,3.5h-3.5L242.2,285.7z
	 M240.6,285.6l-1.4,3.2l-3.6-3.2H240.6z M237.2,289.2h-3.7h-3.7l3.7-3.4L237.2,289.2z M231.6,285.6l-3.6,3.2l-1.4-3.2H231.6z
	 M224.9,285.7l1.6,3.5H223L224.9,285.7z M223.4,290.8h3.8l3.9,8.8L223.4,290.8z M228.8,290.8h4.7h4.7l-4.7,10.8L228.8,290.8z
	 M236.1,299.6l3.9-8.8h3.8L236.1,299.6z"/>
<path fill="#FFFFFF" d="M99.3,327.2c0.6-0.6,3.9-3.9,6-6c1.9-1.9,1.8-4.6,0.1-6.2c-1.7-1.7-4.4-1.7-6.1,0c-1.7-1.7-4.4-1.7-6.1,0
	s-1.7,4.4,0.1,6.2C95.4,323.3,98.7,326.6,99.3,327.2z"/>
<path id="path2243_1_" fill="#FFFFFF" d="M184,150.4c0,0.4-0.3,2-2.9,4.6c-2.6,2.5-3.8,2.8-4.1,2.8c0.4,0,1.6,0.3,4.1,2.8
	c2.7,2.6,2.9,4.1,2.9,4.6c0-0.4,0.3-2,2.9-4.6c2.6-2.5,3.8-2.8,4.1-2.8c-0.4,0-1.6-0.3-4.1-2.8C184.3,152.4,184.1,150.9,184,150.4z"
	/>
<path fill="#FFFFFF" d="M475.3,382h-5.5h-5.5l-1.9,3.5l7.4,8.5l7.4-8.5L475.3,382z M474.8,382.9l1.1,2h-2L474.8,382.9z M473.8,382.9
	l-0.8,1.9l-2-1.9H473.8z M471.9,384.9h-2.1h-2.1l2.1-1.9L471.9,384.9z M468.7,382.9l-2,1.9l-0.8-1.9H468.7z M464.8,382.9l0.9,2h-2
	L464.8,382.9z M464,385.8h2.2l2.2,5.1L464,385.8z M467.1,385.8h2.7h2.7l-2.7,6.2L467.1,385.8z M471.3,390.9l2.2-5.1h2.2L471.3,390.9
	z"/>
<path fill="#FFFFFF" d="M363.4,107.7c1.6-1.6,10.7-10.7,16.3-16.3c5.1-5.1,5-12.5,0.4-17.1s-12.1-4.6-16.7,0
	c-4.6-4.6-12.1-4.6-16.7,0s-4.7,12,0.4,17.1C352.7,97,361.8,106.1,363.4,107.7z"/>
<path id="path2243_2_" fill="#FFFFFF" d="M39.8,425.5c0,1.1-0.7,5.4-8,12.5c-7,6.8-10.3,7.6-11.3,7.7c1,0.1,4.3,0.9,11.3,7.7
	c7.3,7.1,7.9,11.3,8,12.5c0-1.1,0.7-5.4,8-12.5c7-6.8,10.3-7.6,11.3-7.7c-1-0.1-4.3-0.9-11.3-7.7C40.5,430.9,39.8,426.6,39.8,425.5z
	"/>
<path fill="#FFFFFF" d="M94.1,38.1H79.2H64.3L59,47.6l20.1,23.2l20.1-23.2L94.1,38.1z M92.7,40.7l3.1,5.6h-5.5L92.7,40.7z
	 M90.1,40.6l-2.2,5.1l-5.6-5.1H90.1z M84.9,46.3h-5.7h-5.7l5.7-5.3L84.9,46.3z M76,40.6l-5.6,5.1l-2.2-5.1H76z M65.6,40.7l2.4,5.6
	h-5.5L65.6,40.7z M63.2,48.7h6l6.1,13.9L63.2,48.7z M71.8,48.7h7.4h7.4l-7.4,16.9L71.8,48.7z M83.2,62.6l6.1-13.9h6L83.2,62.6z"/>
</svg>
